site/_assets/img/07.svg

<svg viewBox="0 0 500 500" xmlns="http://www.w3.org/2000/svg">
<path d="M47.05 475H301.75V461.5H218.95C205.45 461.5 201.85 458.8 201.85 446.2V54.7C201.85 43.9 208.15 38.5 220.75 38.5H255.85C321.55 38.5 351.25 59.2 351.25 155.5C351.25 251.8 322.45 277 261.25 277H159.55V292.3H312.55C409.75 292.3 452.95 235.6 452.95 155.5C452.95 75.4 408.85 25 313.45 25H47.05V38.5H83.05C96.55 38.5 100.15 43 100.15 53.8V446.2C100.15 458.8 94.7501 461.5 83.9501 461.5H47.05V475Z" fill="#FFFFFF"/>
</svg>

<svg viewBox="0 0 500 500" xmlns="http://www.w3.org/2000/svg"><path d="m47.05 475h254.7v-13.5h-82.8c-13.5 0-17.1-2.7-17.1-15.3v-391.5c0-10.8 6.3-16.2 18.9-16.2h35.1c65.7 0 95.4 20.7 95.4 117s-28.8 121.5-90 121.5h-101.7v15.3h153c97.2 0 140.4-56.7 140.4-136.8s-44.1-130.5-139.5-130.5h-266.4v13.5h36c13.5 0 17.1 4.5 17.1 15.3v392.4c0 12.6-5.3999 15.3-16.1999 15.3h-36.9001z" fill="#fafafa"/></svg>
